X: 267
T:Flying Pig, The
M:12/8
L:1/8
C:Aogn Lynch
R:slide
D:Slide: The Flying Pig
Z:Devin McCabe
K:G
e3 g3 edB A2B|GBd g2b a2b g2f|e2f ~g2e edB A2B|1G2B d2B A2f g2f:|2G2B d2
B A2B d2B||
!~c2d e2d def ~a2f|g2b a2g gfe d2B|~c2d e2d def a2f|g2b a2g f3 d2B|
!~c2d e2^c def a2f|g2b a2g gfe d2B|cde ~g2e dBA G2A|F2A G2F D2A- ABd||
